dist/assets/img/icons/our/card1.svg

<svg width="126" height="125" viewBox="0 0 126 125" fill="none" xmlns="http://www.w3.org/2000/svg">
<path d="M118.315 36.7681C118.315 36.7681 117.618 35.0625 115.61 34.1035C109.026 30.959 96.3433 28.5135 84.1269 33.507C70.7837 38.961 63.4089 50.4834 61.0686 57.4743C60.5836 58.9231 61.0888 60.1591 61.0888 60.1591C61.0888 60.1591 61.594 61.395 62.955 62.0893C69.5221 65.4394 82.8565 68.497 96.1997 63.043C108.416 58.0496 115.755 47.4203 118.251 40.5645C119.012 38.4737 118.315 36.7681 118.315 36.7681Z" fill="#CEABFB"/>
<path d="M96.1538 10.1636C96.1538 10.1636 94.6337 9.12223 92.4293 9.42511C85.2012 10.4183 73.2627 15.3488 65.804 26.2364C57.6572 38.1283 57.8322 51.8077 59.7211 58.9338C60.1125 60.4107 61.214 61.1653 61.214 61.1653C61.214 61.1653 62.3156 61.9199 63.8341 61.7516C71.1614 60.9392 83.9806 56.1618 92.1274 44.2699C99.5862 33.3822 99.8721 20.4689 98.1876 13.37C97.6738 11.205 96.1538 10.1636 96.1538 10.1636Z" fill="#E1C8F0"/>
<path d="M6.19547 36.7681C6.19547 36.7681 6.89263 35.0625 8.90042 34.1035C15.484 30.959 28.167 28.5135 40.3834 33.507C53.7266 38.961 61.1014 50.4834 63.4417 57.4743C63.9267 58.9231 63.4215 60.1591 63.4215 60.1591C63.4215 60.1591 62.9163 61.395 61.5553 62.0893C54.9882 65.4394 41.6538 68.497 28.3106 63.043C16.0942 58.0496 8.75552 47.4203 6.25952 40.5645C5.49832 38.4737 6.19547 36.7681 6.19547 36.7681Z" fill="#E1C8F0"/>
<path d="M28.3564 10.1635C28.3564 10.1635 29.8765 9.12211 32.0808 9.42499C39.3089 10.4181 51.2474 15.3487 58.7062 26.2363C66.853 38.1282 66.6779 51.8075 64.7891 58.9337C64.3976 60.4105 63.2961 61.1651 63.2961 61.1651C63.2961 61.1651 62.1946 61.9198 60.676 61.7514C53.3487 60.9391 40.5295 56.1617 32.3828 44.2698C24.924 33.3821 24.6381 20.4687 26.3226 13.3698C26.8363 11.2049 28.3564 10.1635 28.3564 10.1635Z" fill="#ECDAF3"/>
<path d="M61.9038 0V62C61.9038 62 60.5648 62 59.4038 61C53.802 56.1748 45.9038 44.9563 45.9038 30.5C45.9038 17.2645 52.9865 6.41853 58.4038 1.5C60.0559 0 61.9038 0 61.9038 0Z" fill="#F7EBF5"/>
<path d="M61.9038 0V62C61.9038 62 63.2429 62 64.4038 61C70.0056 56.1748 77.9038 44.9563 77.9038 30.5C77.9038 17.2645 70.8211 6.41853 65.4038 1.5C63.7517 0 61.9038 0 61.9038 0Z" fill="#ECDAF3"/>
<path d="M9.90378 86.5C5.10378 90.9 0.903777 101 0.903777 105.5L0.531982 120C0.531935 121.835 2.9165 126.681 6.90375 123C13.4037 117 20.4037 114.5 28.9037 114.5L71.4038 114C83.5704 109.167 106.147 95.8903 121.404 92.5C125.904 91.5 128.404 83.5 119.404 82C110.404 80.5 97.4038 85.5 87.4038 89.5C79.4038 92.7 70.0704 92.1667 66.4038 91.5C78.4038 91.5 77.9038 79 74.4038 79H29.9038C18.9038 79 15.9038 81 9.90378 86.5Z" fill="#FFD6BA"/>
<path d="M55.4037 91.5H66.9037C72.9037 92.7 78.7371 92 80.9037 91.5C79.9037 95 73.4037 100.5 65.4037 101H45.4037C45.4037 101 32.4036 101 37.4037 96C40.2631 93.1406 51.5704 91.6667 55.4037 91.5Z" fill="#FEB55E"/>
<path d="M69.4039 84H59.9038C59.9038 84 59.4038 82.5 60.4038 81C61.4038 79.5 62.9039 79 62.9039 79H74.4038C74.9038 80 72.4038 84 69.4039 84Z" fill="#FFDFB7"/>
<path d="M112.904 91.5L119.904 89.5C122.904 89.0001 124.404 91 121.904 92.5L110.404 96.0001C109.662 95.1636 110.006 92.2765 112.904 91.5Z" fill="#FFDFB7"/>
</svg>

<svg width="126" height="125" fill="none" xmlns="http://www.w3.org/2000/svg"><path d="M118.315 36.768s-.697-1.706-2.705-2.665c-6.584-3.144-19.267-5.59-31.483-.596-13.343 5.454-20.718 16.976-23.058 23.967-.485 1.45.02 2.685.02 2.685s.505 1.236 1.866 1.93c6.567 3.35 19.901 6.408 33.245.954 12.216-4.993 19.555-15.623 22.051-22.478.761-2.091.064-3.797.064-3.797z" fill="#CEABFB"/><path d="M96.154 10.164s-1.52-1.042-3.725-.739c-7.228.993-19.166 5.924-26.625 16.811-8.147 11.892-7.972 25.572-6.083 32.698.392 1.477 1.493 2.231 1.493 2.231s1.102.755 2.62.587c7.327-.813 20.147-5.59 28.293-17.482 7.46-10.888 7.745-23.801 6.06-30.9-.513-2.165-2.033-3.206-2.033-3.206z" fill="#E1C8F0"/><path d="M6.195 36.768s.698-1.706 2.705-2.665c6.584-3.144 19.267-5.59 31.483-.596 13.344 5.454 20.718 16.976 23.059 23.967.485 1.45-.02 2.685-.02 2.685s-.506 1.236-1.867 1.93c-6.567 3.35-19.901 6.408-33.244.954C16.094 58.05 8.756 47.42 6.26 40.565c-.762-2.091-.065-3.797-.065-3.797z" fill="#E1C8F0"/><path d="M28.356 10.164s1.52-1.042 3.725-.739c7.228.993 19.166 5.924 26.625 16.811 8.147 11.892 7.972 25.571 6.083 32.698-.391 1.477-1.493 2.231-1.493 2.231s-1.101.755-2.62.586c-7.327-.812-20.147-5.59-28.293-17.481-7.459-10.888-7.745-23.801-6.06-30.9.513-2.165 2.033-3.206 2.033-3.206z" fill="#ECDAF3"/><path d="M61.904 0v62s-1.34 0-2.5-1c-5.602-4.825-13.5-16.044-13.5-30.5 0-13.235 7.082-24.081 12.5-29 1.652-1.5 3.5-1.5 3.5-1.5z" fill="#F7EBF5"/><path d="M61.904 0v62s1.339 0 2.5-1c5.602-4.825 13.5-16.044 13.5-30.5 0-13.235-7.083-24.081-12.5-29-1.652-1.5-3.5-1.5-3.5-1.5z" fill="#ECDAF3"/><path d="M9.904 86.5c-4.8 4.4-9 14.5-9 19L.532 120c0 1.835 2.385 6.681 6.372 3 6.5-6 13.5-8.5 22-8.5l42.5-.5c12.166-4.833 34.743-18.11 50-21.5 4.5-1 7-9-2-10.5s-22 3.5-32 7.5c-8 3.2-17.334 2.667-21 2 12 0 11.5-12.5 8-12.5h-44.5c-11 0-14 2-20 7.5z" fill="#FFD6BA"/><path d="M55.404 91.5h11.5c6 1.2 11.833.5 14 0-1 3.5-7.5 9-15.5 9.5h-20s-13 0-8-5c2.86-2.86 14.166-4.333 18-4.5z" fill="#FEB55E"/><path d="M69.404 84h-9.5s-.5-1.5.5-3 2.5-2 2.5-2h11.5c.5 1-2 5-5 5zm43.5 7.5l7-2c3-.5 4.5 1.5 2 3l-11.5 3.5c-.742-.836-.398-3.724 2.5-4.5z" fill="#FFDFB7"/></svg>
